src/pages/Pricing/Companies/coindesk.svg

<svg width="205" height="40" viewBox="0 0 205 40" fill="none" xmlns="http://www.w3.org/2000/svg">
  <path d="M17.9917 20.0021C17.9917 21.0925 18.8436 21.9444 19.934 21.9444C21.0244 21.9444 21.8763 21.0925 21.8763 20.0021C21.8763 18.9117 21.0244 18.0598 19.934 18.0598C18.8436 18.0939 17.9917 18.9458 17.9917 20.0021ZM34.2796 18.0939C33.1892 18.0939 32.3373 18.9458 32.3373 20.0362C32.3373 21.1266 33.1892 21.9784 34.2796 21.9784C35.37 21.9784 36.2218 21.1266 36.2218 20.0362C36.2218 18.9458 35.37 18.0939 34.2796 18.0939ZM34.2796 32.678C33.1892 32.678 32.3373 33.5299 32.3373 34.6203C32.3373 35.7107 33.1892 36.5626 34.2796 36.5626C35.37 36.5626 36.2218 35.7107 36.2218 34.6203C36.2218 33.5299 35.37 32.678 34.2796 32.678Z" fill="#F3BB2D"/>
  <path d="M38.4025 2.04458C36.4603 -0.374742 32.9846 -0.476963 30.9401 1.43124L30.7016 1.66977L30.2245 2.04458C28.2823 3.61203 25.3859 3.47574 23.5799 1.66977V1.53346C22.9666 0.920108 22.1488 0.44306 21.2969 0.204535C21.1606 0.204535 20.9221 0.0682373 20.8198 0.0682373H18.8776C18.7413 0.0682373 18.639 0.0682352 18.5027 0.204535H18.2642C18.1279 0.204535 18.0257 0.340833 17.8894 0.340833C17.8894 0.340833 17.7531 0.340842 17.7531 0.477142C17.6168 0.477142 17.5146 0.61344 17.3783 0.61344C17.3783 0.61344 17.242 0.613437 17.242 0.749738C17.1057 0.886038 17.0034 0.886042 16.8671 0.988267C16.8671 0.988267 16.7308 0.988265 16.7308 1.12456C16.5945 1.26086 16.4923 1.26086 16.356 1.36308L16.2197 1.49939L15.9812 1.73791L15.5041 2.11274C13.5619 3.68019 10.6655 3.54389 8.9958 1.73791C8.9958 1.73791 8.8595 1.73791 8.8595 1.60161L8.62098 1.36308C7.9054 0.749733 7.05353 0.272683 6.09943 0.170458H3.91863C3.91863 0.306758 3.78233 0.306762 3.6801 0.408987H3.64603C3.03268 0.647512 2.4534 0.886033 1.94228 1.36308L1.80598 1.49939L1.43115 1.87421C0.954101 2.35126 0.715576 2.96461 0.477051 3.44166C0.477051 3.57796 0.34075 3.68019 0.34075 3.81649C0.34075 3.95279 0.20445 4.05501 0.20445 4.29354C0.0681501 5.14541 0.06815 5.99728 0.34075 6.81508C0.34075 6.95139 0.477051 7.05361 0.477051 7.18991V7.32621C0.477051 7.46251 0.613351 7.56474 0.613351 7.70104C0.749651 7.83734 0.74965 7.93956 0.851875 8.17809C1.0904 8.31439 1.32893 8.55292 1.46523 8.65514L1.70375 8.89366L1.94228 9.13219C3.74825 10.9382 3.74825 14.0731 1.80598 16.0153C1.56745 16.2539 1.19263 16.6287 1.0904 16.8672C0.954101 17.0035 0.9541 17.1057 0.851875 17.3443V17.4806C0.715575 17.6169 0.715576 17.7191 0.613351 17.8554V17.9917C0.613351 18.128 0.477051 18.2302 0.477051 18.3665V18.5028C0.477051 18.6391 0.47705 18.7413 0.34075 18.8776V20.6836C0.34075 20.8199 0.340751 20.9221 0.477051 21.0584V21.1947C0.715576 22.0466 1.19263 22.8985 1.9082 23.6141C3.85048 25.5563 3.85048 28.6912 1.9082 30.5994L1.7719 30.7357L1.53338 30.9743V31.1106C1.39708 31.2469 1.29485 31.3491 1.29485 31.4854C1.29485 31.4854 1.29485 31.6217 1.15855 31.6217C1.02225 31.758 1.02225 31.8602 0.920026 31.9965L0.783726 32.1328C0.783726 32.2691 0.647426 32.2691 0.647426 32.3713C0.647426 32.4736 0.511125 32.5076 0.511125 32.6099C0.511125 32.7462 0.511125 32.7462 0.374825 32.8484C0.1363 33.3255 0 33.9388 0 34.4158V35.3699C0.1363 35.7448 0.1363 36.0855 0.374825 36.324C0.374825 36.4603 0.511125 36.5626 0.511125 36.5626C0.511125 36.5626 0.511126 36.6989 0.647426 36.6989C0.647426 36.8352 0.783726 36.9374 0.783726 37.0737C0.783726 37.0737 0.783726 37.21 0.920026 37.21C1.05633 37.4485 1.15855 37.5848 1.29485 37.687C1.29485 37.687 1.29485 37.8233 1.43115 37.8233C1.43115 37.8233 1.43115 37.9597 1.56745 37.9597C1.56745 38.096 1.70375 38.096 1.70375 38.096L1.84005 38.2322C1.97635 38.3685 2.07858 38.3686 2.07858 38.4708L2.21488 38.6071C2.21488 38.6071 2.35118 38.6071 2.35118 38.7434C2.48748 38.8797 2.5897 38.9819 2.726 38.9819C2.726 38.9819 2.8623 38.9819 2.8623 39.1182C2.9986 39.2545 3.10083 39.2545 3.23713 39.3567H3.30528C3.44158 39.493 3.5438 39.493 3.78233 39.493C3.91863 39.493 4.15715 39.6293 4.25938 39.6293H4.39568C4.53198 39.6293 4.6342 39.6293 4.7705 39.7656H5.8609C6.23573 39.7656 6.47425 39.6293 6.815 39.6293H6.9513C7.0876 39.6293 7.18983 39.493 7.32613 39.493H7.39428C7.53058 39.493 7.6328 39.3567 7.7691 39.3567H7.9054C8.14393 39.2204 8.51875 38.9819 8.75728 38.8797L9.1321 38.5048L9.2684 38.3685C11.2107 36.324 14.3456 36.324 16.2538 38.3685C18.4346 40.6516 22.0465 40.5493 24.091 37.9937C25.5222 36.1877 25.5222 33.5299 24.091 31.5876C22.1488 29.1683 18.6731 29.0661 16.6286 30.9743L16.3901 31.2128L15.913 31.5876C13.9708 33.1551 11.0744 33.0188 9.2684 31.2128L9.02988 30.9743L8.65505 30.4972C7.0876 28.5549 7.2239 25.6586 9.02988 23.8526C10.1203 22.8985 10.5973 21.5696 10.5973 20.2406V19.8658C10.5973 18.6732 10.1203 17.4465 9.16618 16.5946C9.16618 16.4583 9.02988 16.4583 9.02988 16.3561L8.65505 15.879C7.0876 13.9368 7.2239 11.0404 9.02988 9.23441L9.16618 9.09811L9.30248 8.96182C11.2448 6.91732 14.3797 6.91732 16.2879 8.96182L16.4242 9.09811L16.5605 9.23441L16.799 9.47294C16.9353 9.47294 16.9353 9.60924 17.0375 9.60924C17.1397 9.60924 17.1738 9.74554 17.276 9.74554C17.3783 9.74554 17.4123 9.88184 17.5146 9.88184C17.6168 9.88184 17.6509 10.0181 17.7531 10.0181C17.8553 10.0181 17.8894 10.1544 17.9916 10.1544C18.0938 10.1544 18.1279 10.2907 18.2301 10.2907C18.3324 10.2907 18.3664 10.2907 18.4687 10.427C18.605 10.427 18.605 10.427 18.7072 10.5633H20.7517C20.888 10.5633 20.9902 10.5633 21.1265 10.427H21.365C21.5013 10.427 21.6036 10.2907 21.7399 10.2907H21.8762C22.0125 10.2907 22.1147 10.1544 22.3532 10.0522C22.8303 9.81369 23.3073 9.43886 23.6821 9.09811L23.8184 8.96182C25.7607 6.91732 28.8956 6.91732 30.8038 8.96182C32.8483 11.3811 36.5966 11.2448 38.5388 8.72329C39.8337 6.50841 39.8337 3.85056 38.4025 2.04458Z" fill="#F3BB2D"/>
  <path d="M65.9013 17.0034C65.1857 16.2879 64.5724 15.8108 63.7205 15.436C63.0049 15.0612 62.153 14.8226 61.0626 14.8226C60.1085 14.8226 59.1204 15.0612 58.4048 15.436C57.6892 15.8108 57.0758 16.2879 56.5988 17.0034C56.1217 17.6168 55.7469 18.3324 55.5084 19.1842C55.2699 20.0361 55.1336 20.888 55.1336 21.7058C55.1336 22.5236 55.2699 23.4095 55.6106 24.2273C55.8492 25.0792 56.3262 25.6585 56.8033 26.2718C57.2803 26.8852 57.9959 27.3622 58.7455 27.703C59.4611 28.0778 60.313 28.18 61.2671 28.18C62.3575 28.18 63.2094 27.9415 63.9249 27.5667C64.6405 27.1919 65.3561 26.7148 65.9694 25.9992L68.491 28.6571C67.5369 29.7475 66.4465 30.4631 65.2198 30.9401C64.0272 31.4172 62.6982 31.6557 61.233 31.6557C59.8019 31.6557 58.3366 31.4172 57.144 30.9401C55.9514 30.4631 54.861 29.7475 54.0091 28.8956C53.1572 28.0437 52.4417 26.9533 51.9646 25.7607C51.4876 24.5681 51.249 23.1029 51.249 21.6717C51.249 20.2406 51.4876 18.7753 51.9646 17.5827C52.4417 16.3901 53.1572 15.2997 54.0091 14.3115C54.861 13.4596 55.9514 12.7441 57.144 12.267C58.3366 11.79 59.8019 11.5514 61.233 11.5514C62.6642 11.5514 63.9931 11.79 65.2198 12.267C66.5487 12.7441 67.6391 13.5959 68.5932 14.55L65.9013 17.0034ZM74.0793 21.4673C74.0793 22.4214 74.2156 23.4095 74.5563 24.1251C74.7949 24.977 75.2719 25.6926 75.749 26.3059C76.226 26.9193 76.9416 27.3963 77.6912 27.6348C78.4068 28.0097 79.395 28.1119 80.3491 28.1119C81.3032 28.1119 82.1551 27.9756 83.0069 27.6348C83.7225 27.26 84.4381 26.783 84.9492 26.3059C85.4263 25.6926 85.9033 24.977 86.1418 24.1251C86.3804 23.2732 86.6189 22.4214 86.6189 21.4673C86.6189 20.5132 86.4826 19.525 86.1418 18.8094C85.9033 17.9575 85.4263 17.242 84.9492 16.6286C84.4722 16.0153 83.7566 15.5382 83.0069 15.2997C82.2914 14.9249 81.3032 14.8226 80.3491 14.8226C79.395 14.8226 78.5431 14.9589 77.6912 15.2997C76.9757 15.6745 76.2601 16.1516 75.749 16.6286C75.2719 17.242 74.7949 17.9575 74.5563 18.8094C74.3178 19.6613 74.0793 20.5132 74.0793 21.4673ZM70.2288 21.4673C70.2288 20.0361 70.4673 18.7072 70.9444 17.4805C71.4214 16.2879 72.137 15.1975 73.1252 14.2093C74.0793 13.2552 75.0675 12.5055 76.3964 12.0285C77.589 11.5514 78.9179 11.1766 80.3832 11.1766C81.8484 11.1766 83.1432 11.4151 84.3699 12.0285C85.5626 12.5055 86.653 13.2211 87.6411 14.2093C88.5952 15.1634 89.2086 16.2538 89.8219 17.4805C90.299 18.6731 90.5375 20.002 90.5375 21.4673C90.5375 22.8984 90.299 24.2273 89.8219 25.454C89.3449 26.6467 88.6293 27.7371 87.6411 28.7252C86.687 29.6793 85.6989 30.2927 84.3699 30.906C83.1773 31.3831 81.8484 31.7579 80.3832 31.7579C78.952 31.7579 77.6231 31.5194 76.3964 30.906C75.2038 30.429 74.1134 29.7134 73.1252 28.7252C72.1711 27.7711 71.5577 26.783 70.9444 25.454C70.6036 24.2273 70.2288 22.8984 70.2288 21.4673ZM94.2517 31.2468H97.8636V11.9603H94.2517V31.2468ZM93.3998 4.94088C93.3998 4.2253 93.6383 3.61196 94.1154 2.99861C94.5924 2.52156 95.2058 2.14673 95.9214 2.14673C96.6369 2.14673 97.2503 2.38526 97.7273 2.99861C98.2044 3.47566 98.4429 4.19123 98.4429 4.94088C98.4429 5.69053 98.2044 6.26981 97.7273 6.88316C97.2503 7.36021 96.6369 7.73503 95.9214 7.73503C95.2058 7.73503 94.5924 7.49651 94.1154 6.88316C93.6383 6.37203 93.3998 5.65645 93.3998 4.94088ZM102.907 11.9263H106.553V14.9249H106.689C107.166 13.8345 107.882 12.9826 109.108 12.4033C110.199 11.79 111.528 11.4492 113.095 11.4492C114.049 11.4492 114.901 11.5855 115.753 11.9263C116.605 12.1648 117.32 12.6418 117.934 13.2552C118.547 13.8685 119.024 14.5841 119.501 15.5382C119.876 16.4923 120.115 17.5827 120.115 18.9116V31.349H116.435V19.8998C116.435 19.0479 116.298 18.1961 116.06 17.6168C115.821 17.0034 115.446 16.4242 115.106 16.0493C114.731 15.6745 114.254 15.3338 113.674 15.1975C113.197 15.0612 112.584 14.9589 111.971 14.9589C111.255 14.9589 110.54 15.0952 109.926 15.3338C109.313 15.5723 108.734 15.9471 108.222 16.5264C107.745 17.0034 107.371 17.719 107.132 18.5709C106.894 19.4228 106.757 20.3769 106.757 21.4673V31.4853H103.145V11.9603L102.907 11.9263ZM133.438 28.2141C134.392 28.2141 135.244 28.0778 136.096 27.7371C136.948 27.3622 137.527 26.8852 138.14 26.3059C138.617 25.6926 139.094 24.977 139.333 24.1251C139.571 23.2732 139.81 22.4214 139.81 21.365C139.81 20.4109 139.674 19.4228 139.333 18.605C139.094 17.7531 138.617 17.0375 138.14 16.4242C137.527 15.8108 136.948 15.3338 136.096 14.993C135.244 14.6182 134.392 14.516 133.438 14.516C132.484 14.516 131.632 14.6523 130.78 14.993C129.928 15.3678 129.349 15.8449 128.736 16.4242C128.259 17.0375 127.782 17.7531 127.543 18.605C127.304 19.4568 127.066 20.3087 127.066 21.365C127.066 22.3191 127.202 23.3073 127.543 24.1251C127.782 24.977 128.259 25.6926 128.736 26.3059C129.213 26.9193 129.928 27.3963 130.78 27.7371C131.496 27.9756 132.484 28.2141 133.438 28.2141ZM143.456 31.1105H139.844V28.3504H139.708C138.992 29.4408 138.004 30.1564 136.811 30.7697C135.619 31.3831 134.29 31.6216 132.961 31.6216C131.53 31.6216 130.065 31.3831 128.872 30.906C127.679 30.429 126.589 29.7134 125.737 28.7252C124.885 27.7711 124.17 26.6807 123.795 25.454C123.318 24.2614 123.079 22.9325 123.079 21.4673C123.079 20.002 123.318 18.7072 123.795 17.3783C124.272 16.1856 124.885 15.0952 125.737 14.1071C126.589 13.153 127.679 12.4033 128.872 11.9263C130.065 11.4492 131.393 11.2107 132.961 11.2107C134.29 11.2107 135.619 11.4492 136.811 12.0626C138.004 12.6759 138.992 13.4937 139.571 14.4819H139.708V0H143.32V31.1105H143.456ZM161.891 19.8998C161.891 19.0479 161.754 18.3324 161.516 17.6168C161.277 16.9012 160.902 16.2879 160.425 15.8108C159.948 15.3338 159.335 14.9589 158.722 14.6182C158.006 14.3797 157.29 14.1411 156.302 14.1411C155.45 14.1411 154.599 14.2774 153.883 14.6182C153.167 14.993 152.554 15.3338 151.941 15.9471C151.464 16.4242 150.987 17.0375 150.748 17.7531C150.51 18.4687 150.271 19.082 150.271 19.6954H161.856L161.891 19.8998ZM150.339 22.8984C150.339 23.7503 150.578 24.4659 150.952 25.1814C151.327 25.897 151.804 26.5104 152.384 26.9874C152.997 27.4645 153.713 27.8393 154.428 28.0778C155.28 28.3163 155.996 28.4526 156.847 28.4526C157.938 28.4526 159.028 28.2141 159.846 27.6008C160.698 27.1237 161.414 26.4081 162.129 25.5563L164.889 27.7371C162.845 30.3949 159.948 31.7238 156.336 31.7238C154.769 31.7238 153.44 31.4853 152.247 31.0083C151.055 30.5312 149.964 29.8156 149.112 28.8275C148.261 27.8734 147.545 26.8852 147.17 25.5563C146.693 24.3636 146.455 23.0347 146.455 21.5695C146.455 20.1383 146.693 18.8094 147.17 17.5827C147.647 16.3901 148.363 15.2997 149.215 14.3115C150.067 13.3574 151.157 12.7441 152.35 12.1307C153.542 11.6537 154.871 11.4151 156.336 11.4151C158.04 11.4151 159.471 11.6537 160.664 12.267C161.856 12.8804 162.845 13.5959 163.56 14.55C164.276 15.5041 164.889 16.5945 165.264 17.8212C165.639 19.0139 165.741 20.2406 165.741 21.5695V22.8984H150.339ZM179.984 16.7649C179.507 16.2879 179.03 15.8108 178.417 15.436C177.804 15.0612 176.986 14.8226 176.134 14.8226C175.282 14.8226 174.566 15.0612 173.851 15.436C173.238 15.8108 172.897 16.2879 172.897 17.0034C172.897 17.6168 173.135 18.0938 173.51 18.3324C173.885 18.7072 174.362 18.9457 174.839 19.1842C175.316 19.4228 175.929 19.5591 176.407 19.6613C177.02 19.7976 177.497 19.8998 177.838 19.8998C178.553 20.1383 179.405 20.2746 180.018 20.6154C180.734 20.8539 181.347 21.2287 181.824 21.7058C182.302 22.1828 182.676 22.6599 183.017 23.2732C183.256 23.8866 183.494 24.6022 183.494 25.5563C183.494 26.6467 183.256 27.6008 182.779 28.3163C182.302 29.0319 181.688 29.7475 180.973 30.2586C180.257 30.7697 179.405 31.1105 178.451 31.349C177.497 31.5875 176.509 31.7238 175.691 31.7238C174.124 31.7238 172.692 31.4853 171.466 31.0083C170.273 30.5312 169.183 29.6793 168.194 28.3504L170.955 26.0674C171.568 26.6807 172.147 27.1578 172.897 27.6348C173.646 28.1119 174.464 28.3504 175.555 28.3504C176.032 28.3504 176.509 28.3504 176.986 28.2141C177.463 28.0778 177.838 27.9756 178.178 27.7371C178.553 27.4985 178.792 27.26 179.03 27.0215C179.269 26.6467 179.405 26.3059 179.405 25.9311C179.405 25.454 179.269 24.977 178.928 24.6022C178.553 24.2273 178.213 23.9888 177.735 23.7503C177.258 23.5118 176.781 23.3755 176.304 23.2732L174.873 22.8984C174.158 22.6599 173.306 22.5236 172.692 22.2851C171.977 22.0465 171.363 21.6717 170.886 21.331C170.409 20.9561 169.932 20.3769 169.557 19.7635C169.183 19.1502 169.08 18.3324 169.08 17.4805C169.08 16.5264 169.319 15.5382 169.694 14.8226C170.069 14.1071 170.648 13.4937 171.397 13.0167C172.113 12.5396 172.829 12.1648 173.681 11.9263C174.532 11.6877 175.487 11.5514 176.338 11.5514C177.667 11.5514 178.86 11.79 180.087 12.267C181.279 12.7441 182.267 13.5959 182.983 14.6863L179.984 16.7649ZM187.004 0.477058H190.616V20.002L198.828 11.79H203.769L194.977 20.4791L204.621 30.8379H199.441L190.65 20.9561V30.8379H187.038V0.477058" fill="#101820"/>
</svg>

<svg xmlns="http://www.w3.org/2000/svg" width="205" height="40" fill="none">
  <path fill="#F3BB2D" d="M18 20c0 1.1.84 1.94 1.93 1.94 1.1 0 1.95-.85 1.95-1.94 0-1.09-.86-1.94-1.95-1.94A1.96 1.96 0 0018 20zm16.28-1.9c-1.1 0-1.94.85-1.94 1.94 0 1.09.85 1.94 1.94 1.94 1.09 0 1.94-.85 1.94-1.94 0-1.1-.85-1.95-1.94-1.95zm0 14.58c-1.1 0-1.94.85-1.94 1.94 0 1.1.85 1.94 1.94 1.94 1.09 0 1.94-.85 1.94-1.94 0-1.09-.85-1.94-1.94-1.94z"/>
  <path fill="#F3BB2D" d="M38.4 2.04a5.13 5.13 0 00-7.46-.6l-.24.23-.48.37a5 5 0 01-6.64-.37v-.14A5.32 5.32 0 0021.3.2c-.14 0-.38-.13-.48-.13h-1.94c-.14 0-.24 0-.38.13h-.24c-.13 0-.23.14-.37.14 0 0-.14 0-.14.14-.13 0-.24.13-.37.13 0 0-.14 0-.14.14-.13.14-.24.14-.37.24 0 0-.14 0-.14.13-.14.14-.24.14-.37.24l-.14.14-.24.24-.48.37A4.82 4.82 0 019 1.74s-.14 0-.14-.14l-.24-.24A4.7 4.7 0 006.1.17H3.92c0 .14-.14.14-.24.24h-.03c-.62.24-1.2.48-1.7.95l-.14.14-.38.37c-.48.48-.71 1.1-.95 1.57 0 .14-.14.24-.14.38 0 .13-.14.24-.14.47-.13.86-.13 1.7.14 2.53 0 .13.14.23.14.37v.14c0 .13.13.23.13.37.14.14.14.24.24.48.24.13.48.37.62.48l.23.23.24.24a4.92 4.92 0 01-.13 6.89c-.24.23-.62.6-.72.85-.14.13-.14.24-.24.47v.14c-.13.14-.13.24-.24.38v.13c0 .14-.13.24-.13.38v.13c0 .14 0 .24-.14.38v1.8c0 .14 0 .24.14.38v.13c.24.86.71 1.7 1.43 2.42a4.92 4.92 0 010 6.99l-.14.14-.24.23v.14c-.13.14-.24.24-.24.38 0 0 0 .13-.13.13-.14.14-.14.24-.24.38l-.14.13c0 .14-.13.14-.13.24 0 .1-.14.14-.14.24 0 .14 0 .14-.14.24A3.77 3.77 0 000 34.42v.95c.14.37.14.72.37.95 0 .14.14.24.14.24s0 .14.14.14c0 .14.13.24.13.37 0 0 0 .14.14.14.14.24.24.37.37.48 0 0 0 .13.14.13 0 0 0 .14.14.14 0 .14.13.14.13.14l.14.13c.14.14.24.14.24.24l.13.14s.14 0 .14.13c.14.14.24.24.38.24 0 0 .13 0 .13.14.14.13.24.13.38.24h.07c.13.13.23.13.47.13.14 0 .38.14.48.14h.14c.13 0 .23 0 .37.14h1.1c.37 0 .6-.14.95-.14h.13c.14 0 .24-.14.38-.14h.06c.14 0 .24-.13.38-.13h.14c.23-.14.6-.38.85-.48l.37-.38.14-.13a4.74 4.74 0 016.98 0 5.15 5.15 0 007.84-.38 5.31 5.31 0 000-6.4 5.13 5.13 0 00-7.46-.62l-.24.24-.48.38a5 5 0 01-6.64-.38l-.24-.24-.37-.47a5 5 0 01.37-6.65 4.71 4.71 0 001.57-3.6v-.38a4.4 4.4 0 00-1.43-3.28c0-.13-.14-.13-.14-.23l-.37-.48a5 5 0 01.37-6.65l.14-.13.13-.14a4.74 4.74 0 016.99 0l.13.14.14.13.24.24c.14 0 .14.14.24.14.1 0 .13.14.24.14.1 0 .13.13.23.13s.14.14.24.14c.1 0 .14.13.24.13.1 0 .14.14.24.14.1 0 .14 0 .24.14.14 0 .14 0 .24.13h2.04c.14 0 .24 0 .38-.13h.23c.14 0 .24-.14.38-.14h.14c.13 0 .23-.14.47-.24.48-.24.96-.61 1.33-.95l.14-.14a4.74 4.74 0 016.98 0 4.97 4.97 0 007.74-.24c1.3-2.21 1.3-4.87-.14-6.68z"/>
  <path fill="#101820" d="M65.9 17a6.81 6.81 0 00-2.18-1.56 5.99 5.99 0 00-5.32 0c-.71.37-1.32.85-1.8 1.56a6.25 6.25 0 00-1.1 2.18c-.23.86-.37 1.7-.37 2.53 0 .81.14 1.7.48 2.52.24.85.72 1.43 1.2 2.04.47.62 1.19 1.1 1.94 1.43.71.38 1.56.48 2.52.48 1.09 0 1.94-.24 2.65-.61A6.7 6.7 0 0065.97 26l2.52 2.66a8.17 8.17 0 01-3.27 2.28c-1.2.48-2.52.72-3.99.72-1.43 0-2.9-.24-4.09-.72a9.43 9.43 0 01-3.13-2.04 9.43 9.43 0 01-2.05-3.14c-.47-1.2-.71-2.66-.71-4.09 0-1.43.24-2.9.71-4.09.48-1.19 1.2-2.28 2.05-3.27a9.43 9.43 0 013.13-2.04c1.2-.48 2.66-.72 4.1-.72 1.42 0 2.75.24 3.98.72a9.25 9.25 0 013.37 2.28L65.9 17zm8.18 4.47c0 .95.14 1.94.48 2.66.23.85.71 1.56 1.19 2.18.48.6 1.2 1.09 1.94 1.32.72.38 1.7.48 2.66.48.95 0 1.8-.13 2.66-.48a9.26 9.26 0 001.94-1.32c.48-.62.95-1.33 1.2-2.18.23-.86.47-1.7.47-2.66a6.5 6.5 0 00-.48-2.66 6.42 6.42 0 00-1.2-2.18 4.07 4.07 0 00-1.93-1.33 5.98 5.98 0 00-2.66-.48c-.95 0-1.8.14-2.66.48-.71.37-1.43.85-1.94 1.33a6.42 6.42 0 00-1.2 2.18c-.23.85-.47 1.7-.47 2.66zm-3.85 0a9.66 9.66 0 012.9-7.26 8.63 8.63 0 013.27-2.18c1.19-.48 2.52-.85 3.98-.85 1.47 0 2.76.24 3.99.85 1.2.48 2.28 1.2 3.27 2.18.96.95 1.57 2.04 2.18 3.27.48 1.2.72 2.52.72 3.99 0 1.43-.24 2.76-.72 3.98a9.66 9.66 0 01-2.18 3.28 10.57 10.57 0 01-7.26 3.03 8.74 8.74 0 01-3.98-.85 9.66 9.66 0 01-3.27-2.18 10.57 10.57 0 01-2.19-3.28c-.34-1.22-.71-2.55-.71-3.98zm24.02 9.78h3.61V11.96h-3.6v19.29zm-.85-26.3c0-.72.24-1.34.72-1.95a2.6 2.6 0 011.8-.85c.72 0 1.33.24 1.8.85.48.48.72 1.2.72 1.94 0 .75-.24 1.33-.71 1.94a2.6 2.6 0 01-1.8.86c-.72 0-1.34-.24-1.81-.86a2.85 2.85 0 01-.72-1.94zm9.5 6.98h3.65v3h.14a4.71 4.71 0 012.42-2.53 8.03 8.03 0 013.98-.95c.96 0 1.81.14 2.66.48.86.23 1.57.71 2.18 1.33a8.41 8.41 0 011.57 2.28c.38.95.61 2.04.61 3.37v12.44h-3.67V19.9a5.36 5.36 0 00-1.33-3.85 3.04 3.04 0 00-1.44-.85 5.74 5.74 0 00-3.75.14 4.68 4.68 0 00-2.8 3.24c-.23.84-.36 1.8-.36 2.89v10.02h-3.62V11.96l-.23-.03zm30.54 16.28c.95 0 1.8-.13 2.66-.47a6.87 6.87 0 002.04-1.43c.48-.62.95-1.33 1.2-2.18.23-.86.47-1.7.47-2.77 0-.95-.14-1.94-.48-2.75a6.43 6.43 0 00-1.19-2.19A5.83 5.83 0 00136.1 15a6.35 6.35 0 00-2.66-.47c-.96 0-1.8.13-2.66.47-.85.38-1.43.85-2.04 1.43a6.43 6.43 0 00-1.2 2.18 9.7 9.7 0 00-.47 2.76c0 .96.13 1.95.47 2.77.24.85.72 1.56 1.2 2.18a4.8 4.8 0 002.04 1.43c.72.24 1.7.47 2.66.47zm10.02 2.9h-3.62v-2.76h-.13a7.2 7.2 0 01-2.9 2.42c-1.2.61-2.52.85-3.85.85-1.43 0-2.9-.24-4.09-.71a8.03 8.03 0 01-3.13-2.18 8.88 8.88 0 01-1.94-3.28 11.73 11.73 0 010-8.08c.47-1.18 1.09-2.27 1.94-3.26a8.4 8.4 0 013.13-2.18c1.2-.48 2.52-.72 4.1-.72 1.32 0 2.65.24 3.84.85a6.66 6.66 0 012.76 2.42h.14V0h3.61v31.11h.14zm18.43-11.21c0-.85-.14-1.57-.37-2.28a4.6 4.6 0 00-1.1-1.8 7.63 7.63 0 00-1.7-1.2c-.71-.24-1.43-.48-2.42-.48-.85 0-1.7.14-2.42.48-.71.37-1.33.71-1.94 1.33a4.8 4.8 0 00-1.2 1.8c-.23.72-.47 1.33-.47 1.95h11.59l.03.2zm-11.55 3a5.79 5.79 0 002.04 4.09 6.97 6.97 0 004.47 1.46 5 5 0 003-.85 8.5 8.5 0 002.28-2.04l2.76 2.18c-2.04 2.65-4.94 3.98-8.55 3.98-1.57 0-2.9-.23-4.1-.71a8.04 8.04 0 01-3.13-2.18 8.14 8.14 0 01-1.94-3.27c-.48-1.2-.71-2.53-.71-3.99 0-1.43.23-2.76.71-3.99.48-1.19 1.2-2.28 2.05-3.27.85-.95 1.94-1.57 3.13-2.18 1.2-.48 2.52-.71 3.99-.71 1.7 0 3.13.23 4.32.85a8.15 8.15 0 012.9 2.28c.72.95 1.33 2.04 1.7 3.27.38 1.2.48 2.42.48 3.75v1.33h-15.4zm29.64-6.14c-.47-.47-.95-.95-1.56-1.32a4.47 4.47 0 00-2.29-.62c-.85 0-1.56.24-2.28.62-.61.37-.95.85-.95 1.56 0 .62.23 1.1.61 1.33.38.38.85.62 1.33.85.48.24 1.09.38 1.57.48.61.14 1.09.24 1.43.24.71.24 1.56.37 2.18.72.71.23 1.33.6 1.8 1.09.48.47.86.95 1.2 1.56.24.62.47 1.33.47 2.29 0 1.09-.23 2.04-.71 2.76a7.54 7.54 0 01-1.8 1.94c-.72.51-1.57.85-2.53 1.09a11.88 11.88 0 01-6.98-.34 7.62 7.62 0 01-3.28-2.66l2.77-2.28c.6.61 1.19 1.09 1.94 1.56.75.48 1.56.72 2.66.72.47 0 .95 0 1.43-.14.47-.13.85-.23 1.19-.47.37-.24.61-.48.85-.72a1.94 1.94 0 00-.1-2.42 4.22 4.22 0 00-1.2-.85 5.9 5.9 0 00-1.43-.48l-1.43-.37c-.71-.24-1.56-.38-2.18-.61a6.92 6.92 0 01-1.8-.96 6.1 6.1 0 01-1.33-1.57 4.44 4.44 0 01-.48-2.28c0-.95.24-1.94.61-2.66a4.8 4.8 0 011.7-1.8 7.85 7.85 0 012.3-1.1 10.05 10.05 0 016.4.34 6.26 6.26 0 012.9 2.43l-3 2.07zM187 .48h3.62V20l8.2-8.21h4.95l-8.8 8.69 9.65 10.36h-5.18l-8.79-9.88v9.88h-3.61V.48"/>
</svg>
